svg/food_drumstick.svg

<svg xmlns="http://www.w3.org/2000/svg" viewBox="0 0 24 24"><path d="M20.16 12.73A6.27 6.27 0 0 0 19.09 3c-2.01-1.33-4.7-1.34-6.73-.03-1.76 1.13-2.73 2.89-2.9 4.71-.13 1.32-.63 2.55-1.55 3.47l-.03.03c-1.16 1.16-1.16 2.93-.07 4.01l.99.99a2.794 2.794 0 0 0 3.95 0c.97-.97 2.25-1.5 3.64-1.65 1.37-.15 2.71-.75 3.77-1.8m-13.9 7.13c.27.56.18 1.24-.29 1.7a1.49 1.49 0 0 1-2.55-.98 1.49 1.49 0 0 1-.98-2.55c.46-.46 1.15-.56 1.7-.29l2.48-2.43c.14.19.3.41.48.59l.99.99c.21.2.41.37.67.52z"/></svg>

<?xml version="1.0" encoding="UTF-8"?><!DOCTYPE svg PUBLIC "-//W3C//DTD SVG 1.1//EN" "http://www.w3.org/Graphics/SVG/1.1/DTD/svg11.dtd"><svg xmlns="http://www.w3.org/2000/svg" xmlns:xlink="http://www.w3.org/1999/xlink" version="1.1" id="mdi-food-drumstick" width="24" height="24" viewBox="0 0 24 24"><path d="M20.16 12.73C22.93 9.96 22.57 5.26 19.09 3C17.08 1.67 14.39 1.66 12.36 2.97C10.6 4.1 9.63 5.86 9.46 7.68C9.33 9 8.83 10.23 7.91 11.15L7.88 11.18C6.72 12.34 6.72 14.11 7.81 15.19L8.8 16.18C9.89 17.27 11.66 17.27 12.75 16.18C13.72 15.21 15 14.68 16.39 14.53C17.76 14.38 19.1 13.78 20.16 12.73M6.26 19.86C6.53 20.42 6.44 21.1 5.97 21.56C5.39 22.15 4.44 22.15 3.85 21.56C3.58 21.29 3.44 20.94 3.42 20.58C3.06 20.56 2.71 20.42 2.44 20.15C1.85 19.56 1.85 18.61 2.44 18.03C2.9 17.57 3.59 17.47 4.14 17.74L6.62 15.31C6.76 15.5 6.92 15.72 7.1 15.9L8.09 16.89C8.3 17.09 8.5 17.26 8.76 17.41L6.26 19.86Z" /></svg>
